packages/core/src/svgs/tokens/branded/FTN.svg

<svg width="24" height="24" viewBox="0 0 24 24" fill="none" xmlns="http://www.w3.org/2000/svg">
<path d="M8.65725 21.9679C8.89106 22.0165 9.13298 22.0099 9.36385 21.9485C9.59461 21.8873 9.80794 21.7731 9.98681 21.6148L19.6825 13.0312C19.9243 12.8121 20.0972 12.5278 20.1808 12.2125C20.2643 11.8971 20.2547 11.5644 20.1532 11.2544C20.0486 10.9416 19.8547 10.6662 19.5955 10.4623C19.3362 10.2585 19.0228 10.1349 18.6941 10.1072L12.4637 9.51882L16.2702 4.3533C16.4746 4.06679 16.5714 3.71731 16.5434 3.36644C16.5154 3.01557 16.3645 2.68583 16.1173 2.43536C15.8308 2.15979 15.4499 2.00406 15.0523 2C14.6759 2 14.311 2.13531 14.0345 2.38829L4.32715 10.9543C4.1425 11.1175 3.99622 11.3195 3.8988 11.5458C3.80139 11.7722 3.75523 12.0173 3.76368 12.2635C3.7721 12.5098 3.83491 12.7513 3.94759 12.9704C4.06026 13.1896 4.22002 13.3811 4.41541 13.5313C4.67427 13.7372 4.99197 13.8548 5.32143 13.8842L11.5518 14.4842L7.74534 19.6498C7.59768 19.8502 7.50328 20.0847 7.47098 20.3315C7.43868 20.5784 7.46953 20.8293 7.56065 21.0609C7.65177 21.2925 7.80016 21.4971 7.99195 21.6558C8.18374 21.8144 8.41265 21.9217 8.65725 21.9679Z" fill="#FF008C"/>
</svg>

<svg xmlns="http://www.w3.org/2000/svg" width="24" height="24" fill="none" viewBox="0 0 24 24">
    <path fill="#FF008C" d="M8.657 21.968a1.53 1.53 0 0 0 1.33-.353l9.696-8.584a1.69 1.69 0 0 0 .47-1.777 1.69 1.69 0 0 0-1.459-1.147l-6.23-.588 3.806-5.166a1.495 1.495 0 0 0-.153-1.918A1.56 1.56 0 0 0 15.052 2c-.376 0-.741.135-1.018.388l-9.707 8.566a1.672 1.672 0 0 0 .088 2.577c.26.206.577.324.906.353l6.23.6-3.806 5.166a1.47 1.47 0 0 0 .912 2.318"/>
</svg>
